X:497
T:Round Dance, Cradling
Z:Jack Campin, http://www.campin.me.uk/
F:Jack Campin's Nine-Note Tunebook
% last edit 03-02-2013
B:Martin, Hungarian Folk Dances
O:Decs, Tolna County
M:5/8
L:1/8
Q:1/8=220
K:DDor
AA B B2|GF E G2|AD D z2 |
GG A B2|cA A F2|GA A z2 |
AG A B2|cA A B2|AF D z2 |
AA A B2|AF E G2|AD D z2|]


% == Hungarian Csango songs and dance tunes from Moldavia ===================

